X: 32198
T: PhD, The
R: reel
M: 4/4
K: Bminor
B3 c BAFA|dBcA BAFA|B3 c BAFA|dBcA BAFA|
FBBc BAFA|dBcA BAFA|B3 c BAFA|dBcA BcAc|
efaf edcd|efed cAcd|efaf edcd|efed cAcd|
efaf edcd|efed cdef|afef bfef|afef ecAc|

